X:1
T:Peace, Be Still
T:Peace, Be Still
T:W. Carroll Radebaugh
T:Ada Torrey Henderson, 1904
T:Public Domain Courtesy of the Cyber Hymnal™
C:W. Carroll Radebaugh
Z:Public Domain
Z:Courtesy of the Cyber Hymnal™
%%score ( 1 2 ) ( 3 4 )
L:1/8
Q:1/4=87
M:3/4
K:Ab
V:1 treble 
V:2 treble 
V:3 bass 
V:4 bass 
V:1
 [CE]>[CF] [CA]>[CF] [CA]>[CF] | [DG]2 [DB]4 | [DE]>[DF] [DG]>[DA] [DB]>[DE] | [Ec]6 | %4
w: 1.~There’s a song my heart is|sing- ing,|Thro’ my soul the sweet tones|thrill;|
w: 2.~Sail- ing o- ver life’s rough|o- cean,|Rag- ing winds the can- vas|fill;|
w: 3.~So my life is filled with|glad- ness,|And my heart bows to His|will;|
w: 4.~When I cross death’s surg- ing|ri- ver,|And its waves my heart would|chill,|
 [CE]>[CF] [CA]>[CF] [CA]>[CF] | [EG]2 [EB]4 | [=DB]>[DF] [D=E]>[DF] [DB]>[DF] | [_DB]4 z2 || %8
w: To my life true joy ’tis|bring- ing,|In the sweet words, “Peace, be|still.”|
w: But a- bove the storm’s com-|mo- tion,|Comes the whis- per, “Peace, be|still.”|
w: Light- er tri- al, pain and|sad- ness,|When He whis- pers, “Peace, be|still.”|
w: With new life my soul shall|qui- ver,|As He whis- pers, “Peace, be|still.”|
"^Refrain" [CE]>[CF] [CA]>[CF] [CA]>[CF] | [DG]2 [DB]4 | [DE]>[DF] [DG]>[DA] [DB]>[CA] | %11
w: |||
w: O my heart is soft- ly|sing- ing!|Un- to Him my soul is|
w: |||
w: |||
 [=Ec]2 [Ec]4 | [DF]>[DG] [DB]>[DA] [DG]>[DF] | [CE]2 !fermata![CA]2 E>E | %14
w: |||
w: cling- ing,|Sweet- est peace His words are|bring- ing, When He|
w: |||
w: |||
 E3"^rit." [DF] !fermata![DE]!fermata![DB] | A4- [CA]2 |] %16
w: ||
w: whis- pers, “Peace, be|* still.”|
w: ||
w: ||
V:2
 x6 | x6 | x6 | x6 | x6 | x6 | x6 | x6 || x6 | x6 | x6 | x6 | x6 | x6 | (B,>C) D x3 | C2 D>D x2 |] %16
V:3
 [A,,E,]>[A,,E,] [A,,E,]>[A,,E,] [A,,E,]>[A,,A,] | [E,B,]2 [E,G,]4 | %2
w: ~ ~ ~ ~ ~ ~|~ ~|
 [E,G,]>[E,A,] [E,B,]>[E,A,] [E,G,]>[E,G,] | [A,,A,]6 | %4
w: ~ ~ ~ ~ ~ ~|~|
 [A,,E,]>[A,,E,] [A,,E,]>[A,,E,] [A,,E,]>[A,,A,] | [E,B,]2 [E,G,]4 | %6
w: ~ ~ ~ ~ ~ ~|~ ~|
 [B,,F,]>[B,,A,] [B,,G,]>[B,,A,] [B,,F,]>[B,,A,] | G,4 x2 || %8
w: ~ ~ ~ ~ ~ ~|~|
 [A,,E,]>[A,,E,] [A,,E,]>[A,,E,] [A,,E,]>[A,,A,] | [E,B,]2 [E,G,]4 | %10
w: ~ ~ ~ ~ ~ ~|~ ~|
 [E,G,]>[E,A,] [E,B,]>[E,A,] [E,G,]>[F,A,] | [C,G,]2 [C,B,]4 | %12
w: ~ ~ ~ ~ ~ ~|~ ~|
 [D,A,]>[D,G,] [D,F,]>[D,F,] [D,A,]>[D,A,] | [A,,A,]2 !fermata![A,,A,]2 z2 | %14
w: ~ ~ ~ ~ ~ ~|~ ~|
 [E,G,]>[E,A,] [E,B,][E,A,] !fermata![E,G,]!fermata![E,G,] | A,2 F,>_F, [A,,E,]2 |] %16
w: When He whis- pers, “peace be|still, peace be still.”|
V:4
 x6 | x6 | x6 | x6 | x6 | x6 | x6 | (E,>F,E,>D,C,>B,,) || x6 | x6 | x6 | x6 | x6 | x6 | x6 | %15
 A,,4- x2 |] %16

